icons/type-icons/icons/application-vnd.oasis.opendocument.formula-template.svg

<!-- Created with Inkscape (http://www.inkscape.org/) --><svg xmlns:dc="http://purl.org/dc/elements/1.1/" xmlns:cc="http://creativecommons.org/ns#" xmlns:rdf="http://www.w3.org/1999/02/22-rdf-syntax-ns#" xmlns:svg="http://www.w3.org/2000/svg" xmlns="http://www.w3.org/2000/svg" xmlns:sodipodi="http://sodipodi.sourceforge.net/DTD/sodipodi-0.dtd" xmlns:inkscape="http://www.inkscape.org/namespaces/inkscape" width="22" version="1.1" height="22" id="svg2" inkscape:version="0.91 r13725" sodipodi:docname="application-vnd.oasis.opendocument.formula-template.svg">
  <sodipodi:namedview pagecolor="#ffffff" bordercolor="#666666" borderopacity="1" objecttolerance="10" gridtolerance="10" guidetolerance="10" inkscape:pageopacity="0" inkscape:pageshadow="2" inkscape:window-width="1360" inkscape:window-height="708" id="namedview11" showgrid="true" inkscape:object-nodes="true" inkscape:zoom="16.649151" inkscape:cx="13.233839" inkscape:cy="9.2515912" inkscape:window-x="0" inkscape:window-y="0" inkscape:window-maximized="1" inkscape:current-layer="layer1">
    <inkscape:grid type="xygrid" id="grid4145"/>
  </sodipodi:namedview>
  <defs id="defs3871"/>
  <metadata id="metadata3874">
    <rdf:RDF>
      <cc:Work rdf:about="">
        <dc:format>image/svg+xml</dc:format>
        <dc:type rdf:resource="http://purl.org/dc/dcmitype/StillImage"/>
      </cc:Work>
    </rdf:RDF>
  </metadata>
  <g inkscape:label="Capa 1" inkscape:groupmode="layer" id="layer1" transform="matrix(1 0 0 1 -326 -534.3622)">
    <path style="color:#000000;color-interpolation:sRGB;color-interpolation-filters:linearRGB;fill:#383838;color-rendering:auto;image-rendering:auto;shape-rendering:auto;text-rendering:auto" d="M 19,5 9.6679688,5.0058594 6.5,14.5 4.3339844,11 3,11 3,12 4,12 6.5,17 10.441406,6 19,6 Z m -5,3 c -2.209139,0 -4,1.790861 -4,4 0,2.209139 1.790861,4 4,4 1.149118,-0.0018 2.241964,-0.497698 3,-1.361328 L 17,16 l 1,0 0,-4 0,-4 -1,0 0,1.3613281 C 16.241964,8.4976979 15.149118,8.0017906 14,8 Z m 0,1 c 1.656854,0 3,1.343146 3,3 0,1.656854 -1.343146,3 -3,3 -1.656854,0 -3,-1.343146 -3,-3 0,-1.656854 1.343146,-3 3,-3 z" transform="translate(326,534.3622)" id="path4" inkscape:connector-curvature="0" sodipodi:nodetypes="ccccccccccccscccccccccsssss"/>
  </g>
</svg>

<?xml version="1.0" encoding="UTF-8"?><svg id="svg2" width="22" height="22" version="1.1" xmlns="http://www.w3.org/2000/svg" xmlns:cc="http://creativecommons.org/ns#" xmlns:dc="http://purl.org/dc/elements/1.1/" xmlns:rdf="http://www.w3.org/1999/02/22-rdf-syntax-ns#">
 <metadata id="metadata3874">
  <rdf:RDF>
   <cc:Work rdf:about="">
    <dc:format>image/svg+xml</dc:format>
    <dc:type rdf:resource="http://purl.org/dc/dcmitype/StillImage"/>
   </cc:Work>
  </rdf:RDF>
 </metadata>
 <g id="layer1" transform="translate(-326 -534.36)">
  <path id="path4" transform="translate(326 534.36)" d="m19 5-9.332 0.0058594-3.168 9.4941-2.166-3.5h-1.334v1h1l2.5 5 3.9414-11h8.5586zm-5 3c-2.2091 0-4 1.7909-4 4s1.7909 4 4 4c1.1491-0.0018 2.242-0.4977 3-1.3613v1.3613h1v-8h-1v1.3613c-0.75804-0.86363-1.8509-1.3595-3-1.3613zm0 1c1.6569 0 3 1.3431 3 3s-1.3431 3-3 3-3-1.3431-3-3 1.3431-3 3-3z" color="#000000" color-rendering="auto" fill="#383838" image-rendering="auto" shape-rendering="auto"/>
 </g>
</svg>
